X: 1
T:True Thomas
M:3/4
L:1/4
C:Traditional
A:Scottish Borders
Z: "Ally" <ally.belfagan:virgin.net> tradtunes 2001-02-14
N: Related to Tam Lin
W:True Thomas lay on Huntlie bank
W:a ferlie he spied wi' his e'e
W:and there he say a ladye bright
W:come riding down by the Eildon tree
K:AMin
E/2 | A/2B/2cB | A/2A/2E c | d/2d/2dc | d/2d/2e-e/2A/2 |
c/2d/2ee | d/2c/2B-B/2G/2 | (A/4B/4)c/2BA/2G/2 | E/2G/2(AA/2) |]
